src/assets/logo.svg

<svg width="57" height="26" viewBox="0 0 57 26" fill="none" xmlns="http://www.w3.org/2000/svg">
<path d="M0.8584 13.84C2.9304 13.872 3.1672 15.184 3.1672 16.112C3.1672 16.944 3.0784 17.776 2.9896 18.64C2.8712 19.504 2.7824 20.4 2.7824 21.2C2.7824 24.432 4.6176 25.584 7.1928 25.584H8.0512V23.312H7.5184C6.0384 23.312 5.4464 22.384 5.4464 20.784C5.4464 20.144 5.5352 19.472 5.6536 18.768C5.7128 18.064 5.8312 17.296 5.8312 16.432C5.8608 14.192 4.9728 13.2 3.4632 12.816V12.752C4.9728 12.368 5.8608 11.408 5.8312 9.168C5.8312 8.336 5.7128 7.568 5.6536 6.864C5.5352 6.16 5.4464 5.488 5.4464 4.848C5.4464 3.28 5.9792 2.352 7.5184 2.352H8.0512V0.0479984H7.1928C4.5584 0.0479984 2.7824 1.328 2.7824 4.336C2.7824 5.168 2.8712 6.032 2.9896 6.928C3.0784 7.792 3.1672 8.656 3.1672 9.488C3.1672 10.512 2.9304 11.728 0.8584 11.76V13.84ZM28.2319 22H31.7839L30.6295 0.431999H25.8935L23.1407 9.072C22.3711 11.6 21.6903 14.256 21.1575 16.592H21.0687C20.5655 14.192 19.9439 11.632 19.2335 9.104L16.6287 0.431999H11.8335L10.5015 22H13.9055L14.3495 13.328C14.4975 10.384 14.6159 6.96 14.7047 4.144H14.7639C15.2967 6.832 16.0071 9.776 16.7767 12.528L19.4407 21.744H22.2527L25.1535 12.4C26.0415 9.68 26.8703 6.768 27.5215 4.144H27.6103C27.5807 7.056 27.7287 10.416 27.8471 13.2L28.2319 22ZM34.6003 20.976C35.6955 21.68 37.8859 22.32 39.9875 22.32C45.1379 22.32 47.5651 19.312 47.5651 15.856C47.5651 12.752 45.8779 10.864 42.4147 9.456C39.7507 8.336 38.5963 7.568 38.5963 5.904C38.5963 4.656 39.6027 3.312 41.9115 3.312C43.7763 3.312 45.1675 3.92 45.8779 4.336L46.7659 1.168C45.7299 0.591999 44.1315 0.079998 41.9707 0.079998C37.6491 0.079998 34.9259 2.768 34.9259 6.288C34.9259 9.392 37.0275 11.28 40.3131 12.56C42.8587 13.552 43.8651 14.512 43.8651 16.144C43.8651 17.904 42.5627 19.088 40.2243 19.088C38.3595 19.088 36.5835 18.448 35.3995 17.712L34.6003 20.976ZM56.7575 11.76C54.7151 11.728 54.4487 10.512 54.4487 9.488C54.4487 8.656 54.5671 7.792 54.6559 6.928C54.7447 6.032 54.8631 5.168 54.8631 4.336C54.8631 1.328 53.0871 0.0479984 50.4527 0.0479984H49.5943V2.352H50.1271C51.6367 2.384 52.1695 3.28 52.1695 4.848C52.1695 5.488 52.0807 6.16 51.9919 6.864C51.9031 7.568 51.8143 8.336 51.8143 9.168C51.7847 11.408 52.6727 12.368 54.1527 12.752V12.816C52.6727 13.2 51.7847 14.192 51.8143 16.432C51.8143 17.296 51.9031 18.064 51.9919 18.768C52.0807 19.472 52.1695 20.144 52.1695 20.784C52.1695 22.384 51.6071 23.28 50.1271 23.312H49.5943V25.584H50.4527C53.0279 25.584 54.8631 24.432 54.8631 21.2C54.8631 20.4 54.7447 19.504 54.6559 18.64C54.5671 17.776 54.4487 16.944 54.4487 16.112C54.4487 15.184 54.7151 13.872 56.7575 13.84V11.76Z" fill="#D27029"/>
</svg>

<svg width="57" height="26" fill="none" xmlns="http://www.w3.org/2000/svg"><path d="M.86 13.84c2.07.03 2.3 1.34 2.3 2.27 0 .83-.08 1.67-.17 2.53-.12.86-.2 1.76-.2 2.56 0 3.23 1.83 4.38 4.4 4.38h.86v-2.27h-.53c-1.48 0-2.07-.93-2.07-2.53 0-.64.09-1.3.2-2.01.06-.7.18-1.47.18-2.34.03-2.24-.86-3.23-2.37-3.61v-.07c1.51-.38 2.4-1.34 2.37-3.58 0-.83-.12-1.6-.18-2.3-.11-.71-.2-1.38-.2-2.02 0-1.57.53-2.5 2.07-2.5h.53V.05H7.2c-2.63 0-4.4 1.28-4.4 4.29 0 .83.08 1.7.2 2.59.09.86.18 1.73.18 2.56 0 1.02-.24 2.24-2.31 2.27v2.08zM28.23 22h3.55L30.63.43h-4.74l-2.75 8.64c-.77 2.53-1.45 5.19-1.98 7.52h-.1c-.5-2.4-1.12-4.96-1.83-7.49L16.63.43h-4.8L10.5 22h3.4l.45-8.67c.15-2.95.27-6.37.35-9.19h.06c.54 2.7 1.25 5.64 2.02 8.39l2.66 9.21h2.81l2.9-9.34c.9-2.72 1.72-5.63 2.37-8.26h.09c-.03 2.92.12 6.28.24 9.06l.38 8.8zm6.37-1.02c1.1.7 3.29 1.34 5.39 1.34 5.15 0 7.58-3 7.58-6.46 0-3.1-1.7-5-5.16-6.4-2.66-1.12-3.81-1.9-3.81-3.56 0-1.24 1-2.59 3.31-2.59 1.87 0 3.26.61 3.97 1.03l.89-3.17a9.88 9.88 0 0 0-4.8-1.09c-4.32 0-7.04 2.69-7.04 6.2 0 3.11 2.1 5 5.38 6.28 2.55 1 3.56 1.95 3.56 3.58 0 1.76-1.3 2.95-3.65 2.95a9.5 9.5 0 0 1-4.82-1.38l-.8 3.27zm22.16-9.22c-2.04-.03-2.31-1.25-2.31-2.27 0-.83.12-1.7.2-2.56.1-.9.21-1.76.21-2.6 0-3-1.77-4.28-4.4-4.28h-.87v2.3h.54c1.5.03 2.04.93 2.04 2.5 0 .64-.09 1.31-.18 2.01-.09.7-.18 1.48-.18 2.3-.03 2.25.86 3.2 2.34 3.6v.06c-1.48.38-2.37 1.37-2.34 3.61 0 .87.1 1.63.18 2.34.1.7.18 1.37.18 2.01 0 1.6-.56 2.5-2.04 2.53h-.54v2.27h.86c2.58 0 4.41-1.15 4.41-4.38 0-.8-.12-1.7-.2-2.56-.1-.86-.21-1.7-.21-2.53 0-.93.27-2.24 2.3-2.27v-2.08z" fill="#D27029"/></svg>
